packages/axiom-materials/src/icon_svgs/globe.svg

<svg height="16" viewBox="0 0 16 16" width="16" xmlns="http://www.w3.org/2000/svg"><path d="m12.3365106 7c-.0406134-.94477912-.1583092-1.8373494-.3365106-2.65863454.3754662-.09839357.7277248-.2128514 1.0509739-.34136546.5072524.8684739.8429341 1.89156627.9490261 3zm-.3365106 4.6586345c.1782014-.8212851.2958972-1.71385538.3365106-2.6586345h1.6634894c-.106092 1.1084337-.4417737 2.1315261-.9490261 3-.3232491-.1285141-.6755077-.2429719-1.0509739-.3413655zm-.600388 1.3413655c.2114452.045.4122212.091.600388.141-.3094083.268-.6440349.506-1 .709.1445199-.264.2764306-.551.399612-.85zm-6.79922403 0c.12318138.299.25509215.586.39961203.85-.35499515-.203-.68962173-.441-1-.709.18816683-.05.38991271-.096.60038797-.141zm-.93772738-4c.04061334.94477912.159138 1.8373494.33733941 2.6586345-.37546622.0983936-.72855367.2128514-1.05180274.3413655-.50642353-.8684739-.8429341-1.8915663-.94819726-3zm.33733941-4.65863454c-.17820141.82128514-.29672607 1.71385542-.33733941 2.65863454h-1.66266059c.10526316-1.10843373.44177373-2.1315261.94819726-3 .32324907.12851406.67633652.24297189 1.05180274.34136546zm.60038797-1.49136546c-.21047526-.045-.41222114-.091-.60038797-.141.31037827-.268.64500485-.506 1-.709-.14451988.264-.27643065.551-.39961203.85zm6.39961203-.85c.3559651.203.6905917.441 1 .709-.1881668.05-.3889428.096-.600388.141-.1231814-.299-.2550921-.586-.399612-.85zm-2 2v-2c.36236162.34232251.71217712.99944964 1 1.89543203-.31143911.05173363-.64501845.08585581-1 .10456797zm0 3v-1.87297634c.5770751-.01909506 1.1330698-.0622665 1.6609574-.12702366.1747914.60024907.2942468 1.27438771.3390426 2zm0 3.8729763v-1.8729763h2c-.0447958.72561229-.1642512 1.3997509-.3390426 2-.5278876-.0647572-1.0838823-.1079286-1.6609574-.1270237zm0 1.1270237c.35498155.0187225.68856089.0528634 1 .1046256-.28782288.8964757-.63763838 1.5539647-1 1.8953744zm-2 0v2c-.3620944-.3414097-.71238938-.9988987-1-1.8953744.31120944-.0517622.64454277-.0859031 1-.1046256zm0-3v1.8729763c-.57795345.0190951-1.13306983.0622665-1.66183575.1270237-.17391304-.6002491-.29336847-1.27438771-.33816425-2zm0-3.87297634v1.87297634h-2c.04479578-.72561229.16425121-1.39975093.33816425-2 .52788757.06475716 1.0838823.1079286 1.66183575.12702366zm0-1.12702366c-.35545723-.01871216-.68879056-.05283434-1-.10456797.28761062-.89598239.6379056-1.55310952 1-1.89543203zm1-4c-4.419 0-8 3.582-8 8s3.581 8 8 8c4.418 0 8-3.582 8-8s-3.582-8-8-8z" fill-rule="evenodd"/></svg>

<?xml version="1.0" encoding="UTF-8"?>
<svg width="16px" height="16px" viewBox="0 0 16 16" version="1.1" xmlns="http://www.w3.org/2000/svg" xmlns:xlink="http://www.w3.org/1999/xlink">
    <g id="Symbols/Social-Icons/Mono/Misc" stroke="none" stroke-width="1" fill="#000000" fill-rule="evenodd">
        <path d="M12.3365106,7 C12.2958972,6.05522088 12.1782014,5.1626506 12,4.34136546 C12.3754662,4.24297189 12.7277248,4.12851406 13.0509739,4 C13.5582263,4.8684739 13.893908,5.89156627 14,7 L12.3365106,7 Z M12,11.6586345 C12.1782014,10.8373494 12.2958972,9.94477912 12.3365106,9 L14,9 C13.893908,10.1084337 13.5582263,11.1315261 13.0509739,12 C12.7277248,11.8714859 12.3754662,11.7570281 12,11.6586345 L12,11.6586345 Z M11.399612,13 C11.6110572,13.045 11.8118332,13.091 12,13.141 C11.6905917,13.409 11.3559651,13.647 11,13.85 C11.1445199,13.586 11.2764306,13.299 11.399612,13 L11.399612,13 Z M4.60038797,13 C4.72356935,13.299 4.85548012,13.586 5,13.85 C4.64500485,13.647 4.31037827,13.409 4,13.141 C4.18816683,13.091 4.38991271,13.045 4.60038797,13 L4.60038797,13 Z M3.66266059,9 C3.70327393,9.94477912 3.82179859,10.8373494 4,11.6586345 C3.62453378,11.7570281 3.27144633,11.8714859 2.94819726,12 C2.44177373,11.1315261 2.10526316,10.1084337 2,9 L3.66266059,9 Z M4,4.34136546 C3.82179859,5.1626506 3.70327393,6.05522088 3.66266059,7 L2,7 C2.10526316,5.89156627 2.44177373,4.8684739 2.94819726,4 C3.27144633,4.12851406 3.62453378,4.24297189 4,4.34136546 L4,4.34136546 Z M4.60038797,2.85 C4.38991271,2.805 4.18816683,2.759 4,2.709 C4.31037827,2.441 4.64500485,2.203 5,2 C4.85548012,2.264 4.72356935,2.551 4.60038797,2.85 L4.60038797,2.85 Z M11,2 C11.3559651,2.203 11.6905917,2.441 12,2.709 C11.8118332,2.759 11.6110572,2.805 11.399612,2.85 C11.2764306,2.551 11.1445199,2.264 11,2 L11,2 Z M9,4 L9,2 C9.36236162,2.34232251 9.71217712,2.99944964 10,3.89543203 C9.68856089,3.94716566 9.35498155,3.98128784 9,4 L9,4 Z M9,7 L9,5.12702366 C9.5770751,5.1079286 10.1330698,5.06475716 10.6609574,5 C10.8357488,5.60024907 10.9552042,6.27438771 11,7 L9,7 Z M9,10.8729763 L9,9 L11,9 C10.9552042,9.72561229 10.8357488,10.3997509 10.6609574,11 C10.1330698,10.9352428 9.5770751,10.8920714 9,10.8729763 L9,10.8729763 Z M9,12 C9.35498155,12.0187225 9.68856089,12.0528634 10,12.1046256 C9.71217712,13.0011013 9.36236162,13.6585903 9,14 L9,12 Z M7,12 L7,14 C6.6379056,13.6585903 6.28761062,13.0011013 6,12.1046256 C6.31120944,12.0528634 6.64454277,12.0187225 7,12 L7,12 Z M7,9 L7,10.8729763 C6.42204655,10.8920714 5.86693017,10.9352428 5.33816425,11 C5.16425121,10.3997509 5.04479578,9.72561229 5,9 L7,9 Z M7,5.12702366 L7,7 L5,7 C5.04479578,6.27438771 5.16425121,5.60024907 5.33816425,5 C5.86605182,5.06475716 6.42204655,5.1079286 7,5.12702366 L7,5.12702366 Z M7,4 C6.64454277,3.98128784 6.31120944,3.94716566 6,3.89543203 C6.28761062,2.99944964 6.6379056,2.34232251 7,2 L7,4 Z M8,0 C3.581,0 0,3.582 0,8 C0,12.418 3.581,16 8,16 C12.418,16 16,12.418 16,8 C16,3.582 12.418,0 8,0 L8,0 Z" id="3D-Globe" ></path>
    </g>
</svg>
